!!!!SEGMENT: pl-kk--kk-i-124--001_anonim--anima-mea.krn
!!!cenid: 16xx:1352
!!!COM: Anonim
!!!COM-rismID: pe30004985
!!!CDT:
!!!CNT:
!!!OTL: Anima mea
!!!PDT:
!!!AGN: Sacred
!!!SMS-siglum: PL-Kk
!!!SMS-shelfmark: Kk.I.124
!!!SMS-shelfwork: 001 W
!!!SMS-variant:
!!!SMS-altvar:
!!!NIFC-rismSourceID: 1001153687
!!!NIFC-islandoraID: pl-kk:3495
!!!URL-pdf-islandora: https://repozytorium.nifc.pl/islandora/object/pl-kk%3A3495/datastream/PDF/view
!!!URL-scan: https://polish.musicsources.pl/pl/lokalizacje/galeria/rekopisy/5757 @EN{Scan on Polish Music Herritage in Open Access Website} @PL{Skany w portalu Dziedzictwo Muzyki Polskiej w otwartym dostępie}
!!!ONB-nifc: UWAGA: w zbiorze: 1. Anima mea, 2. Domus mea domus orationis. Wg RISM obsada A, T 1, T 2, B 1, B 2
!!!AIN: 1 alto 2 bass 2 tenor
!!!key:
**kern	**text	**kern	**text	**kern	**text	**kern	**text	**kern	**text
*part5	*part5	*part4	*part4	*part3	*part3	*part2	*part2	*part1	*part1
*staff5	*staff5	*staff4	*staff4	*staff3	*staff3	*staff2	*staff2	*staff1	*staff1
*Ibass	*	*Ibass	*	*Itenor	*	*Itenor	*	*Ialto	*
*I"[Basso 2]	*	*I"[Basso 1]	*	*I"[Tenore 2]	*	*I"[Tenore 1]	*	*I"[Alto]	*
*I'B. 2	*	*I'B. 1	*	*I'T. 2	*	*I'T. 1	*	*I'A.	*
*clefF4	*	*clefF4	*	*clefC4	*	*clefC4	*	*clefC3	*
*k[]	*	*k[]	*	*k[]	*	*k[]	*	*k[]	*
*C:	*	*C:	*	*C:	*	*C:	*	*C:	*
*M2/2	*	*M2/2	*	*M2/2	*	*M2/2	*	*M2/2	*
*met(C|)	*	*met(C|)	*	*met(C|)	*	*met(C|)	*	*met(C|)	*
!	!	!LO:TX:a:t=12	!	!LO:TX:t=P:problem=kreska pseudotaktowa	!	!LO:TX:a:t=2	!	!LO:TX:t=P:problem=kreska pseudotaktowa	!
00r	.	00r	.	00r	.	0r	.	0G/	A-
=1-	=1-	=1-	=1-	=1-	=1-	=1-	=1-	=1-	=1-
!	!	!	!	!	!	!LO:TX:t=P::problem=przed nutą plama&colon; raczej nie pauza dla semibrevis, bo z nią się potem nic nie zgadza	!	!	!
!	!	!	!	!	!	!LO:TX:t=P:problem=kreska pseudotaktowa	!	!	!
.	.	.	.	.	.	0G/	A-	(1.B/	-ni-
.	.	.	.	.	.	.	.	2c/)	-ma
=2-	=2-	=2-	=2-	=2-	=2-	=2-	=2-	=2-	=2-
00r	.	00r	.	(<0G/	A-	(<1.B\	-ni-	1d\	me-
!	!	!	!	!	!	!	!	!LO:TX:t=P:problem=kreska pseudotaktowa	!
.	.	.	.	.	.	.	.	1d\	-a
!	!	!	!	!	!	!LO:TX:t=P:problem=kreska pseudotaktowa	!	!	!
.	.	.	.	.	.	2c\)	.	.	.
=3-	=3-	=3-	=3-	=3-	=3-	=3-	=3-	=3-	=3-
!	!	!	!	!	!	!	!	!LO:TX:t=P:problem=kreska pseudotaktowa	!
.	.	.	.	1.B\)	.	1d\	-ma	0G/,<	li-
.	.	.	.	.	.	1d\	me-	.	.
!	!	!	!	!LO:TX:t=P:problem=kreska pseudotaktowa	!	!	!	!	!
.	.	.	.	2c\	-ni-	.	.	.	.
=4-	=4-	=4-	=4-	=4-	=4-	=4-	=4-	=4-	=4-
!	!	!LO:TX:t=P:problem=kreska pseudotaktowa	!	!	!	!LO:TX:t=P:problem=kreska pseudotaktowa	!	!	!
00r	.	00r	.	0d\	-ma	1G/	-a	1B/	-que-
.	.	.	.	.	.	2F/	.	2A/	.
.	.	.	.	.	.	1G/	.	1B/	.
=5-	=5-	=5-	=5-	=5-	=5-	=5-	=5-	=5-	=5-
.	.	.	.	0d\	me-	.	.	.	.
.	.	.	.	.	.	4F/	.	4A/	.
!	!	!	!	!	!	!LO:TX:t=P:problem=kreska pseudotaktowa	!	!LO:TX:t=P:problem=kreska pseudotaktowa	!
.	.	.	.	.	.	4E/	.	4G/	.
.	.	.	.	.	.	2F/	.	2A/	.
.	.	.	.	.	.	1G/	.	2B/	.
=6-	=6-	=6-	=6-	=6-	=6-	=6-	=6-	=6-	=6-
!	!	!	!	!LO:TX:a:t=2	!	!	!	!	!
*	*	*	*	*col	*	*	*	*	*
!	!	!	!	!	!	!	!	!LO:TX:t=P:problem=kreska pseudotaktowa	!
00r	.	(<0C/	A-	(1.e\	.	.	.	1c\	.
.	.	.	.	.	.	2E/	.	.	.
!	!	!	!	!	!	!LO:TX:t=P:problem=kreska pseudotaktowa	!	!	!
.	.	.	.	.	.	1E/	.	1.e\	-fac-
.	.	.	.	4d\)	.	.	.	.	.
.	.	.	.	4c\	.	.	.	.	.
*	*	*	*	*Xcol	*	*	*	*	*
=7-	=7-	=7-	=7-	=7-	=7-	=7-	=7-	=7-	=7-
!	!	!	!	!LO:TX:t=P:problem=kreska pseudotaktowa	!	!	!	!	!
!	!	!	!	!LO:TX:a:t=4	!	!	!	!	!
.	.	1.E\)	-ni-	00B\	-a	2r	.	.	.
.	.	.	.	.	.	2G/	li-	2f\	-ta
.	.	.	.	.	.	1.B\	-que-	1g\	.
!	!	!LO:TX:t=P:problem=kreska pseudotaktowa	!	!	!	!	!	!	!
.	.	2F\	.	.	.	.	.	.	.
=8-	=8-	=8-	=8-	=8-	=8-	=8-	=8-	=8-	=8-
!LO:TX:t=P:problem=kreska pseudotaktowa	!	!	!	!	!	!	!	!LO:TX:t=P:problem=kreska pseudotaktowa	!
(0GG/	A-	0G\	-ma	.	.	.	.	00g\	est
!	!	!	!	!	!	!LO:TX:t=P:problem=kreska pseudotaktowa	!	!	!
.	.	.	.	.	.	2c\	.	.	.
.	.	.	.	.	.	1d\	.	.	.
=9-	=9-	=9-	=9-	=9-	=9-	=9-	=9-	=9-	=9-
1BB/)	-ni-	0G\	me-	1r	.	1d\	-fac-	.	.
!LO:TX:t=P:problem=kreska pseudotaktowa	!	!	!	!	!	!	!	!	!
1C/	-ma	.	.	1c\	li-	1e\	-ta	.	.
=10-	=10-	=10-	=10-	=10-	=10-	=10-	=10-	=10-	=10-
!	!	!	!	!	!	!LO:TX:t=P:problem=kreska pseudotaktowa	!	!	!
0D\	me-	1.F\	-a	0A\	-que-	0f\	eſt	00r	.
!	!	!LO:TX:t=P:problem=kreska pseudotaktowa	!	!	!	!	!	!	!
.	.	2D\	li-	.	.	.	.	.	.
=11-	=11-	=11-	=11-	=11-	=11-	=11-	=11-	=11-	=11-
!LO:TX:t=P:problem=kreska pseudotaktowa	!	!	!	!	!	!	!	!	!
0D\	-a	2.F\	-que-	1A\	-fa-	2d\	.	.	.
.	.	.	.	.	.	1f\	.	.	.
.	.	4G\	-fa-	.	.	.	.	.	.
.	.	1A\	.	2.F/	.	.	.	.	.
.	.	.	.	.	.	4e\	.	.	.
*	*	*	*	*	*	*custos:e	*	*	*
!	!	!	!	!LO:TX:t=P:problem=kreska pseudotaktowa	!	!	!	!	!
.	.	.	.	4G/	.	4d\	.	.	.
!	!	!	!	!	!	!LO:LB:g=original	!	!	!
=12-	=12-	=12-	=12-	=12-	=12-	=12-	=12-	=12-	=12-
0E\	li-	0AA/	-cta	0A\	.	2c\	.	0r	.
.	.	.	.	.	.	1d\	.	.	.
!	!	!	!	!	!	!LO:TX:t=P:problem=kreska pseudotaktowa	!	!	!
.	.	.	.	.	.	2c\	.	.	.
=13-	=13-	=13-	=13-	=13-	=13-	=13-	=13-	=13-	=13-
!	!	!LO:TX:t=P:problem=kreska pseudotaktowa	!	!	!	!	!	!LO:TX:t=P:problem=kreska pseudotaktowa	!
1.F\	-que-	1D\	eſt	1.A\	-cta	2d\	.	1r	.
.	.	.	.	.	.	1D/	ut	.	.
.	.	00r	.	.	.	.	.	1c\	ut
!	!	!	!	!LO:TX:t=P:problem=kreska pseudotaktowa	!	!LO:TX:t=P:problem=kreska pseudotaktowa	!	!	!
2E\	.	.	.	2G/	eſt	2E/	.	.	.
=14-	=14-	=14-	=14-	=14-	=14-	=14-	=14-	=14-	=14-
!LO:TX:t=P:problem=kreska pseudotaktowa	!	!	!	!	!	!	!	!	!
1D\	-fac-	.	.	2A/	.	1F/	di-	1d\	di-
.	.	.	.	2B\	.	.	.	.	.
*lig	*	*	*	*	*	*	*	*	*
*	*	*	*	*	*	*	*	*custos:f	*
1C/	-ta	.	.	1c\	ut	2G/	.	1e\	-le-
.	.	.	.	.	.	2.A/	-le-	.	.
!	!	!	!	!	!	!	!	!LO:LB:g=original	!
=15-	=15-	=15-	=15-	=15-	=15-	=15-	=15-	=15-	=15-
!	!	!	!	!LO:TX:t=P:problem=kreska pseudotaktowa	!	!	!	!	!
1D\	.	.	.	1A\	di-	.	.	2f\	.
.	.	.	.	.	.	4G/	.	.	.
.	.	.	.	.	.	4F/	.	4d\	.
!	!	!	!	!	!	!	!	!LO:TX:t=P:problem=kreska pseudotaktowa	!
.	.	.	.	.	.	4E/	.	4e\	.
*Xlig	*	*	*	*	*	*	*	*	*
!LO:TX:t=P:problem=kreska pseudotaktowa	!	!	!	!	!	!LO:TX:t=P:problem=kreska pseudotaktowa	!	!	!
0.D\	es	0r	.	2.d\	-le-	1D/	-ct(us)	4f\	.
.	.	.	.	.	.	.	.	4g\	.
!	!	!	!	!	!	!	!	!LO:TX:t=P:problem=kreska pseudotaktowa	!
.	.	.	.	.	.	.	.	2a\	.
.	.	.	.	4c\	.	.	.	.	.
=16-	=16-	=16-	=16-	=16-	=16-	=16-	=16-	=16-	=16-
!	!	!	!	!	!	!	!	!LO:N:xstem:cue	!
.	.	.	.	2d\	.	1r	.	4a\	.
.	.	.	.	.	.	.	.	4g\	.
.	.	.	.	2B\	.	.	.	1g\	.
.	.	1D\	ut	1A\	.	1d\	lo-	.	.
.	.	.	.	.	.	.	.	2f\	.
!	!	!	!	!LO:LB:g=original	!	!	!	!	!
=17-	=17-	=17-	=17-	=17-	=17-	=17-	=17-	=17-	=17-
!	!	!	!	!	!	!	!	!LO:TX:t=P:problem=kreska pseudotaktowa	!
00r	.	1.E\	di-	1.G/	.	2.B\	-cu-	0g\,<	-ct(us)
.	.	.	.	.	.	8c\L	.	.	.
!	!	!	!	!	!	!LO:TX:t=P:problem=kreska pseudotaktowa	!	!	!
.	.	.	.	.	.	8B\J	.	.	.
.	.	.	.	.	.	2c\	.	.	.
!	!	!LO:TX:t=P:problem=kreska pseudotaktowa	!	!LO:TX:t=P:problem=kreska pseudotaktowa	!	!	!	!	!
.	.	2D/	.	2F/	-ctus	2.B\	.	.	.
=18-	=18-	=18-	=18-	=18-	=18-	=18-	=18-	=18-	=18-
*	*	*lig	*	*lig	*	*	*	*	*
.	.	1C/	-le-	1E/	.	.	.	1r	.
.	.	.	.	.	.	4A/	.	.	.
.	.	.	.	.	.	1A\	.	.	.
.	.	1BB/	.	1D/	.	.	.	2r	.
.	.	.	.	.	.	2G/	-t(us)	1d\	lo-
!	!	!	!	!	!	!LO:TX:t=P:problem=kreska pseudotaktowa	!	!	!
*	*	*Xlig	*	*Xlig	*	*	*	*	*
=19-	=19-	=19-	=19-	=19-	=19-	=19-	=19-	=19-	=19-
!	!	!LO:TX:t=P:problem=kreska pseudotaktowa	!	!	!	!	!	!	!
*	*	*	*	*lig	*	*	*	*	*
1r	.	1AA/	-ct(us)	1E/	.	2.A\	.	.	.
!	!	!	!	!	!	!	!	!LO:TX:t=P:problem=kreska pseudotaktowa	!
.	.	.	.	.	.	.	.	2c/	-cu-
.	.	.	.	.	.	8B\L	.	.	.
.	.	.	.	.	.	8c\J	.	.	.
1D\	ut	0r	.	1F/	.	2.d\	.	1f\	.
.	.	.	.	.	.	4c\	.	.	.
!	!	!	!	!	!	!LO:TX:t=P:problem=kreska pseudotaktowa	!	!	!
*	*	*	*	*Xlig	*	*	*	*	*
=20-	=20-	=20-	=20-	=20-	=20-	=20-	=20-	=20-	=20-
!	!	!	!	!LO:TX:t=P:problem=kreska pseudotaktowa	!	!	!	!	!
1.E\	di-	.	.	0G/	.	2B\	.	1e\	.
.	.	.	.	.	.	2A/	.	.	.
.	.	1r	.	.	.	2G/	.	2c/	.
!LO:TX:t=P:problem=kreska pseudotaktowa	!	!	!	!	!	!LO:TX:t=P:problem=kreska pseudotaktowa	!	!LO:TX:t=P:problem=kreska pseudotaktowa	!
2D/	.	.	.	.	.	2F/	.	2d/	.
=21-	=21-	=21-	=21-	=21-	=21-	=21-	=21-	=21-	=21-
*lig	*	*	*	*	*	*	*	*	*
1C/	-le-	0G\	lo-	00r	.	2E/	.	1e\	.
.	.	.	.	.	.	2C/	.	.	.
1BB/	.	.	.	.	.	2.D/	.	1d\	.
*	*	*	*	*	*	*custos:F	*	*	*
.	.	.	.	.	.	4E/	.	.	.
!	!	!LO:LB:g=original	!	!	!	!LO:LB:g=original	!	!	!
*Xlig	*	*	*	*	*	*	*	*	*
=22-	=22-	=22-	=22-	=22-	=22-	=22-	=22-	=22-	=22-
!LO:TX:a:t=4	!	!	!	!	!	!	!	!	!
00AA/	-ct(us)	1.A\	-cu-	.	.	1.F/	.	2c/	.
!	!	!	!	!	!	!	!	!LO:TX:t=P:problem=kreska pseudotaktowa	!
.	.	.	.	.	.	.	.	2B/	.
.	.	.	.	.	.	.	.	2A/	.
!	!	!LO:TX:t=P:problem=kreska pseudotaktowa	!	!	!	!	!	!	!
.	.	2G\	.	.	.	2E/	.	2.e\	.
=23-	=23-	=23-	=23-	=23-	=23-	=23-	=23-	=23-	=23-
*	*	*lig	*	*	*	*	*	*	*
!	!	!	!	!	!	!LO:TX:t=P:problem=kreska pseudotaktowa	!	!	!
.	.	1F\	.	1r	.	0.A\	eſt	.	.
.	.	.	.	.	.	.	.	4d\	.
.	.	.	.	.	.	.	.	1d\	.
.	.	1E\	.	1E/	lo-	.	.	.	.
!	!	!	!	!	!	!	!	!LO:TX:t=P:problem=kreska pseudotaktowa	!
.	.	.	.	.	.	.	.	2c/	-tus
*	*	*Xlig	*	*	*	*	*	*	*
=24-	=24-	=24-	=24-	=24-	=24-	=24-	=24-	=24-	=24-
!LO:TX:t=P:problem=kreska pseudotaktowa	!	!	!	!	!	!	!	!LO:TX:t=P:problem=kreska pseudotaktowa	!
1r	.	2.D/	.	2F/	.	.	.	1d\	eſt
.	.	.	.	1A\	-cu-	.	.	.	.
!	!	!LO:TX:t=P:problem=kreska pseudotaktowa	!	!	!	!	!	!	!
.	.	4C/	.	.	.	.	.	.	.
!LO:LB:g=original	!	!	!	!	!	!	!	!	!
1.C/	lo-	4AA/	.	.	.	0r	.	00r	.
.	.	4BB/	.	.	.	.	.	.	.
.	.	4C/	.	4G/	.	.	.	.	.
!	!	!	!	!LO:TX:t=P:problem=kreska pseudotaktowa	!	!	!	!	!
.	.	4D/	.	4F/	.	.	.	.	.
=25-	=25-	=25-	=25-	=25-	=25-	=25-	=25-	=25-	=25-
.	.	4E\	.	2E/	.	.	.	.	.
.	.	4F\	.	.	.	.	.	.	.
2BB/	.	1G\	.	2D/	-t(us)	.	.	.	.
*	*	*	*	*	*	*	*ij	*	*
!	!	!	!	!LO:TX:t=P:problem=kreska pseudotaktowa	!	!	!	!	!
1AA/	.	.	.	1A\	eſt	1c\	ut	.	.
!	!	!LO:TX:t=P:problem=kreska pseudotaktowa	!	!	!	!	!	!	!
.	.	2F\	-t(us)	.	.	.	.	.	.
=26-	=26-	=26-	=26-	=26-	=26-	=26-	=26-	=26-	=26-
*lig	*	*	*	*	*	*	*	*	*
1GG/	-cu-	1G\	eſt	2r	.	2B\	di-	.	.
!	!	!	!	!	!	!LO:TX:t=P:problem=kreska pseudotaktowa	!	!	!
.	.	.	.	2.B\	lo-	2G/	.	.	.
!	!	!LO:TX:t=P:problem=kreska pseudotaktowa	!	!	!	!	!	!	!
1BB/	.	1D\	.	.	.	1d\	-lec-	0r	.
.	.	.	.	4A\	.	.	.	.	.
.	.	.	.	1G/	-cu-	.	.	.	.
*Xlig	*	*	*	*	*	*	*	*	*
=27-	=27-	=27-	=27-	=27-	=27-	=27-	=27-	=27-	=27-
0AA/	-tuſ	0r	.	.	.	1.c\	-t(us)	.	.
.	.	.	.	4F/	.	.	.	.	.
!	!	!	!	!LO:TX:t=P:problem=kreska pseudotaktowa	!	!	!	!	!
.	.	.	.	4E/	.	.	.	.	.
!	!	!	!	!	!	!	!	!LO:TX:t=P:problem=kreska pseudotaktowa	!
.	.	.	.	1F/	-t(us)	.	.	1A/	quae-
!	!	!	!	!	!	!LO:TX:t=P:problem=kreska pseudotaktowa	!	!	!
.	.	.	.	.	.	2A\	lo-	.	.
=28-	=28-	=28-	=28-	=28-	=28-	=28-	=28-	=28-	=28-
!LO:TX:t=P:problem=kreska pseudotaktowa	!	!	!	!LO:TX:t=P:problem=kreska pseudotaktowa	!	!	!	!	!
0GG/	eſt	0D\	quae	0G/	eſt	2.d\	-cu-	2.B/	-ſi-
*	*	*	*	*	*	*	*	*custos:d	*
.	.	.	.	.	.	4c\	.	4c\	.
!	!	!	!	!	!	!	!	!LO:LB:g=original	!
.	.	.	.	.	.	2.B\	-tus	1.d\	.
.	.	.	.	.	.	4A\	.	.	.
=29-	=29-	=29-	=29-	=29-	=29-	=29-	=29-	=29-	=29-
!	!	!	!	!	!	!LO:TX:t=P:problem=kreska pseudotaktowa	!	!	!
0r	.	0E\	ſi-	1r	.	0G/	eſt	.	.
*	*	*	*	*	*	*	*Xij	*	*
.	.	.	.	.	.	.	.	4c/	.
!	!	!	!	!	!	!	!	!LO:TX:t=P:problem=kreska pseudotaktowa	!
.	.	.	.	.	.	.	.	4B/	.
.	.	.	.	1.c\	quae-	.	.	1c\	.
=30-	=30-	=30-	=30-	=30-	=30-	=30-	=30-	=30-	=30-
!	!	!LO:TX:t=P:problem=kreska pseudotaktowa	!	!	!	!	!	!LO:TX:t=P:problem=kreska pseudotaktowa	!
0GG/	quae	0D\	-ui	.	.	1r	.	0d\	-ui
.	.	.	.	4B\	-ſi-	.	.	.	.
!	!	!	!	!LO:TX:t=P:problem=kreska pseudotaktowa	!	!	!	!	!
.	.	.	.	4A\	.	.	.	.	.
.	.	.	.	1B\	-ui	1.G/	quae	.	.
=31-	=31-	=31-	=31-	=31-	=31-	=31-	=31-	=31-	=31-
!	!	!	!	!LO:TX:t=P:problem=kreska pseudotaktowa	!	!	!	!LO:TX:t=P:problem=kreska pseudotaktowa	!
0AA/	ſi-	1r	.	0c\	.	.	.	1r	.
.	.	.	.	.	.	4F/	.	.	.
.	.	.	.	.	.	4E/	.	.	.
.	.	1C/	et	.	.	1F/	ſi-	1A/	et
=32-	=32-	=32-	=32-	=32-	=32-	=32-	=32-	=32-	=32-
!	!	!	!	!	!	!LO:TX:t=P:problem=kreska pseudotaktowa	!	!	!
0GG/	-vi	1D\	non	0r	.	0G/	-ui	1B/	non
!	!	!LO:TX:t=P:problem=kreska pseudotaktowa	!	!	!	!	!	!LO:TX:t=P:problem=kreska pseudotaktowa	!
.	.	1E\	in-	.	.	.	.	1G/	in-
=33-	=33-	=33-	=33-	=33-	=33-	=33-	=33-	=33-	=33-
!LO:TX:t=P:problem=kreska pseudotaktowa	!	!	!	!	!	!	!	!	!
0FF/	et	0F\	-ve-	1A\	et	1r	.	1.c\	-ue-
.	.	.	.	2A/	non	1A\	et	.	.
.	.	.	.	1c\	.	.	.	4B/	.
.	.	.	.	.	.	.	.	4A/	.
=34-	=34-	=34-	=34-	=34-	=34-	=34-	=34-	=34-	=34-
!	!	!LO:TX:t=P:problem=kreska pseudotaktowa	!	!	!	!	!	!	!
1AA/	non	0E\	-ni	.	.	2A/	non	0e\	.
.	.	.	.	4B\	.	1c\	.	.	.
!	!	!	!	!LO:TX:t=P:problem=kreska pseudotaktowa	!	!	!	!	!
.	.	.	.	4A\	.	.	.	.	.
!	!	!	!	!LO:LB:g=original	!	!	!	!	!
1.C/	in-	.	.	2G/	.	.	.	.	.
.	.	.	.	2A/	.	4B\	.	.	.
!	!	!	!	!	!	!LO:TX:t=P:problem=kreska pseudotaktowa	!	!	!
.	.	.	.	.	.	4A\	.	.	.
=35-	=35-	=35-	=35-	=35-	=35-	=35-	=35-	=35-	=35-
!	!	!	!	!	!	!	!	!LO:TX:t=P:problem=kreska pseudotaktowa	!
.	.	2r	.	2E/	.	2G/	.	1c\	-ni
!	!	!	!	!LO:TX:t=P:problem=kreska pseudotaktowa	!	!	!	!	!
2AA/	-ue-	1A\	il-	2F/	.	2c\	in-	.	.
!LO:TX:t=P:problem=kreska pseudotaktowa	!	!	!	!	!	!LO:TX:t=P:problem=kreska pseudotaktowa	!	!	!
1BB/	.	.	.	1D/	in-	1d\	-ve-	1r	.
!	!	!LO:TX:t=P:problem=kreska pseudotaktowa	!	!	!	!	!	!	!
.	.	2G\	.	.	.	.	.	.	.
=36-	=36-	=36-	=36-	=36-	=36-	=36-	=36-	=36-	=36-
0AA/	-ni	1A\	.	0E/	-ve-	1.c\	-ni	00e\	il-
!	!	!LO:LB:g=original	!	!	!	!	!	!	!
.	.	2A\	.	.	.	.	.	.	.
.	.	1c\	.	.	.	4B\	.	.	.
.	.	.	.	.	.	4A\	.	.	.
=37-	=37-	=37-	=37-	=37-	=37-	=37-	=37-	=37-	=37-
0C/	il-	.	.	1.E/	-ni	1G/	.	.	.
.	.	4B\	.	.	.	.	.	.	.
.	.	4A\	.	.	.	.	.	.	.
*	*	*lig	*	*	*	*	*	*	*
!	!	!	!	!	!	!LO:LB:g=original	!	!	!
.	.	1G\	.	.	.	1.c\	il-	.	.
.	.	.	.	4D/	.	.	.	.	.
!	!	!	!	!LO:TX:t=P:problem=kreska pseudotaktowa	!	!	!	!	!
.	.	.	.	4C/	.	.	.	.	.
=38-	=38-	=38-	=38-	=38-	=38-	=38-	=38-	=38-	=38-
!	!	!	!	!	!	!	!	!LO:TX:t=P:problem=kreska pseudotaktowa	!
0AA/	-lum	1A\	.	1E/	il-	.	.	1c\	-lum
.	.	.	.	.	.	4B\	.	.	.
.	.	.	.	.	.	4A\	.	.	.
!	!	!	!	!	!	!LO:TX:t=P:problem=kreska pseudotaktowa	!	!	!
*	*	*Xlig	*	*	*	*	*	*	*
!	!	!LO:TX:t=P:problem=kreska pseudotaktowa	!	!	!	!	!	!	!
.	.	1E\	-lum	1C/	.	2A/	.	1e\	uo-
.	.	.	.	.	.	4G/	.	.	.
.	.	.	.	.	.	4F/	.	.	.
=39-	=39-	=39-	=39-	=39-	=39-	=39-	=39-	=39-	=39-
!	!	!	!	!	!	!LO:TX:t=P:problem=kreska pseudotaktowa	!	!	!
0C/	uo-	1r	.	1E/	-l(um)	0c\	-lu(m)	0e\	-ca-
.	.	1E\	vo-	1A\	.	.	.	.	.
=40-	=40-	=40-	=40-	=40-	=40-	=40-	=40-	=40-	=40-
!	!	!	!	!LO:TX:t=P:problem=kreska pseudotaktowa	!	!	!	!	!
0D\	.	2.F\	-ca-	1A\	Vo-	2r	.	2A/	-ui
!	!	!	!	!	!	!	!	!LO:TX:t=P:problem=kreska pseudotaktowa	!
.	.	.	.	.	.	2A/	Vo-	2d\	.
.	.	4G\	.	.	.	.	.	.	.
!	!	!	!	!	!	!LO:TX:t=P:problem=kreska pseudotaktowa	!	!LO:N:xstem:cue	!
.	.	2A\	.	2D/	-ca-	1A\	-ca-	4d\	.
.	.	.	.	.	.	.	.	4e\	.
!	!	!LO:TX:t=P:problem=kreska pseudotaktowa	!	!	!	!	!	!	!
.	.	2D/	-ui	2.d\	.	.	.	4f\	.
.	.	.	.	.	.	.	.	4g\	.
=41-	=41-	=41-	=41-	=41-	=41-	=41-	=41-	=41-	=41-
0D\	-ca-	1r	.	.	.	2D/	-vi	2a\	.
.	.	.	.	4c\	.	.	.	.	.
.	.	.	.	2B\	.	2d\	Vo-	1g\	.
*	*	*	*ij	*	*	*	*	*	*
.	.	1D\	vo-	1A\	.	00d\	-ca-	.	.
!	!	!	!	!	!	!	!	!LO:TX:t=P:problem=kreska pseudotaktowa	!
.	.	.	.	.	.	.	.	2f\	.
=42-	=42-	=42-	=42-	=42-	=42-	=42-	=42-	=42-	=42-
!LO:TX:t=P:problem=kreska pseudotaktowa	!	!	!	!LO:TX:t=P:problem=kreska pseudotaktowa	!	!	!	!LO:TX:t=P:problem=kreska pseudotaktowa	!
0GG/	-ui	0D\	-ca-	0G/	-ui	.	.	0g\	.
=43-	=43-	=43-	=43-	=43-	=43-	=43-	=43-	=43-	=43-
!	!	!	!	!	!	!	!	!LO:TX:t=P:problem=kreska pseudotaktowa	!
00r	.	0GG/	-ui	1r	.	.	.	1r	.
*	*	*	*Xij	*	*ij	*	*	*	*
!	!	!	!	!	!	!LO:TX:t=P:problem=kreska pseudotaktowa	!	!LO:LB:g=original	!
.	.	.	.	1.d\	Vo-	1G/	-ui	0B-X/	et
=44-	=44-	=44-	=44-	=44-	=44-	=44-	=44-	=44-	=44-
.	.	0BB-X/	et	.	.	1r	.	.	.
.	.	.	.	2c\	.	.	.	.	.
!	!	!	!	!LO:TX:t=P:problem=kreska pseudotaktowa	!	!	!	!LO:TX:t=P:problem=kreska pseudotaktowa	!
.	.	.	.	1B-X\	.	0F/	et	1d\	non
=45-	=45-	=45-	=45-	=45-	=45-	=45-	=45-	=45-	=45-
!LO:TX:t=P:problem=kreska pseudotaktowa	!	!LO:TX:t=P:problem=kreska pseudotaktowa	!	!	!	!	!	!	!
1r	.	1D\	non	2A\	.	.	.	1.f\	re-
.	.	.	.	2d\	.	.	.	.	.
0FF/	et	1.F\	re-	1c\	-ca-	0A\	non	.	.
.	.	.	.	.	.	.	.	4e\	.
!	!	!	!	!	!	!	!	!LO:TX:t=P:problem=kreska pseudotaktowa	!
.	.	.	.	.	.	.	.	4d\	.
=46-	=46-	=46-	=46-	=46-	=46-	=46-	=46-	=46-	=46-
!	!	!	!	!LO:TX:t=P:problem=kreska pseudotaktowa	!	!	!	!	!
.	.	.	.	1F/	-ui	.	.	2c/	.
*	*	*	*	*	*Xij	*	*	*	*
.	.	4E\	.	.	.	.	.	2f\	.
.	.	4D\	.	.	.	.	.	.	.
!LO:LB:g=original	!	!	!	!	!	!	!	!	!
0AA/	non	2C/	-ſpon-	00r	.	1.c\	re-	1e\	-ſpon-
!	!	!LO:TX:t=P:problem=kreska pseudotaktowa	!	!	!	!	!	!	!
.	.	2D\	.	.	.	.	.	.	.
=47-	=47-	=47-	=47-	=47-	=47-	=47-	=47-	=47-	=47-
.	.	2E\	.	.	.	.	.	2.c/	-dit
.	.	2F\	.	.	.	4B\	.	.	.
!	!	!	!	!	!	!LO:TX:t=P:problem=kreska pseudotaktowa	!	!LO:TX:t=P:problem=kreska pseudotaktowa	!
.	.	.	.	.	.	4A\	.	4d\	.
1.C/	re-	2E\	.	.	.	2G/	.	2e\	.
!	!	!LO:TX:t=P:problem=kreska pseudotaktowa	!	!	!	!	!	!	!
.	.	2AA/	-dit	.	.	2.A/	-ſpon-	2f\	.
=48-	=48-	=48-	=48-	=48-	=48-	=48-	=48-	=48-	=48-
.	.	2C/	.	.	.	.	.	2e\	.
.	.	.	.	.	.	4G/	.	.	.
2BB/	.	2D/	mi-	.	.	2G/	.	1d\	mi-
!	!	!	!	!	!	!LO:TX:t=P:problem=kreska pseudotaktowa	!	!	!
1AA/	-ſpon-	1E\	.	1r	.	1A\	-dit	.	.
.	.	.	.	.	.	.	.	2c/	.
!	!	!LO:LB:g=original	!	!	!	!	!	!	!
=49-	=49-	=49-	=49-	=49-	=49-	=49-	=49-	=49-	=49-
!	!	!LO:TX:t=P:problem=kreska pseudotaktowa	!	!	!	!	!	!LO:TX:t=P:problem=kreska pseudotaktowa	!
1BB-X/	.	1D\	-hi	1F/	et	0r	.	1d\	-hi
00AA/	-dit	0r	.	1A\	no(n)	.	.	00r	.
=50-	=50-	=50-	=50-	=50-	=50-	=50-	=50-	=50-	=50-
*	*	*	*	*	*	*	*ij	*	*
*	*	*	*	*custos:c	*	*	*	*	*
!	!	!	!	!LO:TX:t=P:problem=kreska pseudotaktowa	!	!	!	!	!
.	.	.	.	1c\	re-	0C/	et	.	.
!	!	!	!	!LO:LB:g=original	!	!	!	!	!
.	.	1r	.	2c\	-ſpon-	.	.	.	.
.	.	.	.	2Bny\	.	.	.	.	.
=51-	=51-	=51-	=51-	=51-	=51-	=51-	=51-	=51-	=51-
!	!	!	!	!LO:TX:t=P:problem=kreska pseudotaktowa	!	!LO:TX:t=P:problem=kreska pseudotaktowa	!	!	!
.	.	1C/	et	1A\	.	1E/	non	.	.
!	!	!LO:TX:t=P:problem=kreska pseudotaktowa	!	!	!	!	!	!	!
0GG/	mi-	1E\	non	1.B\	-dit	1G/	re-	1G/	et
=52-	=52-	=52-	=52-	=52-	=52-	=52-	=52-	=52-	=52-
!	!	!	!	!	!	!	!	!LO:TX:t=P:problem=kreska pseudotaktowa	!
.	.	1.G\	reſ-	.	.	2G/	-spon-	1Bny/	non
.	.	.	.	4A\	.	4F/	.	.	.
.	.	.	.	4G\	.	4E/	.	.	.
!LO:TX:t=P:problem=kreska pseudotaktowa	!	!	!	!	!	!LO:TX:t=P:problem=kreska pseudotaktowa	!	!	!
0GG/	-hi	.	.	1.B\	mi-	1D/	-dit	1.d\	re-
.	.	2F\	.	.	.	.	.	.	.
=53-	=53-	=53-	=53-	=53-	=53-	=53-	=53-	=53-	=53-
.	.	1E\	-pon-	.	.	1r	.	.	.
!	!	!	!	!	!	!	!	!LO:TX:t=P:problem=kreska pseudotaktowa	!
.	.	.	.	2c\	.	.	.	2c/	.
!	!	!	!	!LO:TX:t=P:problem=kreska pseudotaktowa	!	!	!	!	!
00r	.	0D\	-dit	0d\	-hi	0F/	et	2B/	.
!	!	!	!	!	!	!	!	!LO:TX:t=P:problem=kreska pseudotaktowa	!
.	.	.	.	.	.	.	.	2A/	.
!	!	!	!	!	!	!LO:LB:g=original	!	!	!
=54-	=54-	=54-	=54-	=54-	=54-	=54-	=54-	=54-	=54-
*	*	*	*	*	*	*	*	*lig	*
.	.	.	.	.	.	.	.	1B/	-ſpon-
*	*	*lig	*	*	*	*	*	*	*
.	.	1E\	mi-	0r	.	1G/	non	1.c\	.
*	*	*	*	*	*	*	*	*Xlig	*
=55-	=55-	=55-	=55-	=55-	=55-	=55-	=55-	=55-	=55-
!	!	!	!	!	!	!LO:TX:t=P:problem=kreska pseudotaktowa	!	!	!
.	.	1.F\	.	.	.	1A\	re-	.	.
!	!	!	!	!	!	!	!	!LO:TX:t=P:problem=kreska pseudotaktowa	!
.	.	.	.	.	.	.	.	2B/	.
*	*	*	*	*	*ij	*	*	*	*
00r	.	.	.	1F/	et	1.c\	-spon-	2A/	.
*	*	*Xlig	*	*	*	*	*	*	*
!	!	!LO:TX:t=P:problem=kreska pseudotaktowa	!	!	!	!	!	!	!
.	.	2E\	.	.	.	.	.	2G/	.
=56-	=56-	=56-	=56-	=56-	=56-	=56-	=56-	=56-	=56-
!	!	!	!	!	!	!	!	!LO:TX:t=P:problem=kreska pseudotaktowa	!
.	.	1D\	.	1A\	non	.	.	1F/	.
.	.	.	.	.	.	2B\	.	.	.
!	!	!	!	!LO:TX:t=P:problem=kreska pseudotaktowa	!	!	!	!	!
.	.	0C/	.	1c\	re-	2A/	.	1E/	-dit
.	.	.	.	.	.	4G/	.	.	.
!	!	!	!	!	!	!LO:TX:t=P:problem=kreska pseudotaktowa	!	!	!
.	.	.	.	.	.	4F/	.	.	.
=57-	=57-	=57-	=57-	=57-	=57-	=57-	=57-	=57-	=57-
.	.	.	.	2c\	-ſpon-	4E/	.	2r	.
.	.	.	.	.	.	4D/	.	.	.
!	!	!	!	!	!	!	!	!LO:TX:t=P:problem=kreska pseudotaktowa	!
.	.	.	.	4B\	.	1G/	-dit	2e\	mi-
.	.	.	.	4A\	.	.	.	.	.
*	*	*lig	*	*	*	*	*Xij	*	*
!	!	!	!	!	!	!	!	!LO:LB:g=original	!
0r	.	1D\	.	2B\	.	.	.	4e\	.
.	.	.	.	.	.	.	.	4d\	.
.	.	.	.	1A\	.	2F/	mi-	1d\	.
=58-	=58-	=58-	=58-	=58-	=58-	=58-	=58-	=58-	=58-
*	*	*	*	*	*	*lig	*	*	*
.	.	1E\	.	.	.	1G/	.	.	.
!	!	!	!	!	!	!	!	!LO:TX:t=P:problem=kreska pseudotaktowa	!
.	.	.	.	1G/	.	.	.	2c/	.
*	*	*Xlig	*	*	*	*	*	*	*
!	!	!LO:TX:t=P:problem=kreska pseudotaktowa	!	!	!	!	!	!	!
1r	.	1D\	-hi	.	.	1A\	.	1d\	-hi
.	.	.	.	2F/	.	.	.	.	.
*	*	*	*	*	*	*Xlig	*	*	*
=59-	=59-	=59-	=59-	=59-	=59-	=59-	=59-	=59-	=59-
*	*	*	*	*lig	*	*	*	*	*
0GG/	mi-	1.G\	.	1G/	-dit	[0G/l;	-hi	0d\	mi-
!	!	!	!	!LO:TX:t=P:problem=kreska pseudotaktowa	!	!	!	!	!
.	.	.	.	1A\	.	.	.	.	.
.	.	2F\	.	.	.	.	.	.	.
*	*	*	*	*Xlig	*	*	*	*	*
=60-	=60-	=60-	=60-	=60-	=60-	=60-	=60-	=60-	=60-
*	*	*	*	*	*	*	*	*col	*
0C/	.	2.E\	.	0c\	mi-	0G/_	.	(1.e\	.
!	!	!LO:TX:t=P:problem=kreska pseudotaktowa	!	!	!	!	!	!	!
.	.	4D/	.	.	.	.	.	.	.
.	.	1E\	.	.	.	.	.	.	.
.	.	.	.	.	.	.	.	4d\	.
.	.	.	.	.	.	.	.	4c\)	.
*	*	*	*	*	*	*	*	*Xcol	*
=61-	=61-	=61-	=61-	=61-	=61-	=61-	=61-	=61-	=61-
0GG/;;	-hi	0D\;;	.	0d\;;	-hi	0G/]	.	0B/;;	-hi
*	*	*	*	*	*Xij	*	*	*	*
=62||	=62||	=62||	=62||	=62||	=62||	=62||	=62||	=62||	=62||
*M2/2	*	*M2/2	*	*M2/2	*	*M2/2	*	*M2/2	*
*met(C|)	*	*met(C|)	*	*met(C|)	*	*met(C|)	*	*met(C|)	*
!LO:TX:t=P:problem=kreska pseudotaktowa	!	!	!	!	!	!	!	!	!
0r	.	0.D\	In-	0.A\	In-	00r	.	1r	.
.	.	.	.	.	.	.	.	1.d\	In-
=63-	=63-	=63-	=63-	=63-	=63-	=63-	=63-	=63-	=63-
0D\	In-	.	.	.	.	.	.	.	.
!	!	!	!	!	!	!	!	!LO:TX:t=P:problem=kreska pseudotaktowa	!
.	.	.	.	.	.	.	.	2e\	.
*	*	*	*	*custos:c	*	*	*	*	*
!	!	!LO:TX:t=P:problem=kreska pseudotaktowa	!	!	!	!	!	!	!
.	.	1D\	-ve-	1A\	-ue-	.	.	1f\	-ue-
!	!	!LO:LB:g=original	!	!LO:LB:g=original	!	!	!	!	!
=64-	=64-	=64-	=64-	=64-	=64-	=64-	=64-	=64-	=64-
1.E\	-ve-	1.C/	-ne-	0c\	-ne-	0r	.	1g\	-ne-
*	*	*	*	*	*	*	*	*lig	*
.	.	.	.	.	.	.	.	1G/	-runt
2D/	-ne-	2BB/	.	.	.	.	.	.	.
=65-	=65-	=65-	=65-	=65-	=65-	=65-	=65-	=65-	=65-
*lig	*	*	*	*	*	*	*	*	*
!	!	!	!	!LO:TX:t=P:problem=kreska pseudotaktowa	!	!LO:TX:t=P:problem=kreska pseudotaktowa	!	!	!
1E\	.	0AA/	-runt	0C/	-runt	1r	.	1A/	.
*	*	*	*	*	*	*	*	*Xlig	*
*custos:G	*	*	*	*	*	*	*	*	*
!LO:TX:t=P:problem=kreska pseudotaktowa	!	!	!	!	!	!	!	!	!
*	*	*	*	*	*	*lig	*	*	*
!	!	!	!	!	!	!	!	!LO:TX:t=P:problem=kreska pseudotaktowa	!
1F\	.	.	.	.	.	1A\	In-	1c\	me
*Xlig	*	*	*	*	*	*	*	*	*
!LO:LB:g=original	!	!	!	!	!	!	!	!	!
=66-	=66-	=66-	=66-	=66-	=66-	=66-	=66-	=66-	=66-
!	!	!LO:TX:t=P:problem=kreska pseudotaktowa	!	!	!	!	!	!	!
1.G\	.	1GG/	me	2D/	me	1.B\	.	1r	.
.	.	.	.	1E/	cu-	.	.	.	.
.	.	0r	.	.	.	.	.	2r	.
*	*	*	*	*	*	*Xlig	*	*	*
!	!	!	!	!	!	!LO:TX:t=P:problem=kreska pseudotaktowa	!	!	!
2F\	.	.	.	2F/	-ſto-	2A/	.	2d\	cuſ-
=67-	=67-	=67-	=67-	=67-	=67-	=67-	=67-	=67-	=67-
!	!	!	!	!	!	!	!	!LO:TX:t=P:problem=kreska pseudotaktowa	!
1E\	-runt	.	.	2.G/	.	2B\	-ue-	1e\	-to-
.	.	.	.	.	.	2c\	.	.	.
.	.	.	.	4A\	.	.	.	.	.
!LO:TX:t=P:problem=kreska pseudotaktowa	!	!	!	!	!	!	!	!	!
1D\	me	2r	.	1B-X\	-dis	1.d\	-ne-	1f\	-des
.	.	1D\	cu-	.	.	.	.	.	.
=68-	=68-	=68-	=68-	=68-	=68-	=68-	=68-	=68-	=68-
0r	.	.	.	1A\	.	.	.	2f\	.
!	!	!LO:TX:t=P:problem=kreska pseudotaktowa	!	!	!	!LO:TX:t=P:problem=kreska pseudotaktowa	!	!LO:TX:t=P:problem=kreska pseudotaktowa	!
.	.	2AA/	.	.	.	2c\	.	2e\	.
!	!	!	!	!	!	!	!	!LO:N:xstem:cue	!
.	.	2BB-X/	-ſto-	2F/	Ci-	1B-X\	-runt	4e\	.
.	.	.	.	.	.	.	.	4d\	.
!	!	!	!	!LO:TX:t=P:problem=kreska pseudotaktowa	!	!	!	!	!
.	.	2GG/	.	2G/	-vi-	.	.	1d\	.
=69-	=69-	=69-	=69-	=69-	=69-	=69-	=69-	=69-	=69-
!	!	!LO:TX:t=P:problem=kreska pseudotaktowa	!	!	!	!LO:TX:t=P:problem=kreska pseudotaktowa	!	!	!
1r	.	1AA/	-des	1E/	-ta-	0A\	me	.	.
*	*	*	*	*	*	*	*	*custos:d	*
!	!	!	!	!	!	!	!	!LO:TX:t=P:problem=kreska pseudotaktowa	!
.	.	.	.	.	.	.	.	2c/	.
*lig	*	*	*	*	*	*	*	*	*
!	!	!	!	!	!	!	!	!LO:LB:g=original	!
!	!	!	!	!	!	!	!	!LO:TX:t=P:problem=kreska pseudotaktowa	!
1D\	cu-	1r	.	2.F/	.	.	.	1d\	.
.	.	.	.	8E/L	.	.	.	.	.
.	.	.	.	8D/J	.	.	.	.	.
=70-	=70-	=70-	=70-	=70-	=70-	=70-	=70-	=70-	=70-
*	*	*	*ij	*	*	*	*	*	*
1E\	.	1AA/	cu-	2C/	.	(1A\	cu-	1r	.
.	.	.	.	2c\	.	.	.	.	.
*Xlig	*	*	*	*	*	*	*	*lig	*
!	!	!	!	!	!	!LO:N:acc=#	!	!	!
1E\	-ſto-	1G\	-ſto-	2Bny\	.	1BnX\)	.	1e\	ci-
.	.	.	.	2G\	.	.	.	.	.
=71-	=71-	=71-	=71-	=71-	=71-	=71-	=71-	=71-	=71-
*	*	*	*	*	*	*custos:A	*	*	*
!LO:TX:t=P:problem=kreska pseudotaktowa	!	!	!	!	!	!	!	!	!
1D\	-des	2F\	.	1d\	-tis	1B\	-ſto-	1.f\	.
!	!	!LO:TX:t=P:problem=kreska pseudotaktowa	!	!	!	!	!	!	!
.	.	2D\	-des	.	.	.	.	.	.
!	!	!	!	!	!	!LO:LB:g=original	!	!	!
!	!	!	!	!LO:TX:t=P:problem=kreska pseudotaktowa	!	!LO:TX:t=P:problem=kreska pseudotaktowa	!	!	!
1.F\	Ci-	2r	.	1c\	.	1A\	-des	.	.
*	*	*	*Xij	*	*	*	*	*Xlig	*
!	!	!	!	!	!	!	!	!LO:TX:t=P:problem=kreska pseudotaktowa	!
.	.	1A\	Ci-	.	.	.	.	2e\	.
=72-	=72-	=72-	=72-	=72-	=72-	=72-	=72-	=72-	=72-
.	.	.	.	0r	.	2r	.	2d\	.
2E\	.	2G\	-ui-	.	.	2c\	Ci-	2c/	.
2D/	.	2F\	-ta-	.	.	2B\	-vi-	2d\	-ui-
!LO:TX:t=P:problem=kreska pseudotaktowa	!	!LO:TX:t=P:problem=kreska pseudotaktowa	!	!	!	!LO:TX:t=P:problem=kreska pseudotaktowa	!	!LO:TX:t=P:problem=kreska pseudotaktowa	!
2C/	-ui-	2E\	.	.	.	2c\	.	2e\	.
=73-	=73-	=73-	=73-	=73-	=73-	=73-	=73-	=73-	=73-
2.F\	-ta-	1D\	.	2r	.	1A\	-ta-	2f\	-ta-
!	!	!	!	!LO:TX:t=P:problem=kreska pseudotaktowa	!	!	!	!	!
.	.	.	.	2d\	per-	.	.	1d\	.
4G\	.	.	.	.	.	.	.	.	.
1E\	.	1AA/	.	1e\	-cuſ-	1A\	-tis	.	.
.	.	.	.	.	.	.	.	2c/	-tis
=74-	=74-	=74-	=74-	=74-	=74-	=74-	=74-	=74-	=74-
!LO:TX:t=P:problem=kreska pseudotaktowa	!	!LO:TX:t=P:problem=kreska pseudotaktowa	!	!	!	!LO:TX:t=P:problem=kreska pseudotaktowa	!	!LO:TX:t=P:problem=kreska pseudotaktowa	!
0D\	-tis	0D\	-tis	0f\	-ſe-	1A\	per-	1d\	.
*	*	*	*	*	*	*lig	*	*	*
.	.	.	.	.	.	1A\	-cuſ-	1r	.
=75-	=75-	=75-	=75-	=75-	=75-	=75-	=75-	=75-	=75-
1r	.	00r	.	1.f\	-runt	1B\	.	1d\	per-
*	*	*	*	*	*	*Xlig	*	*	*
0D\	per	.	.	.	.	1B\	-ſe-	2.d\	-cuſ-
!	!	!	!	!LO:TX:t=P:problem=kreska pseudotaktowa	!	!	!	!	!
.	.	.	.	2e\	.	.	.	.	.
!	!	!	!	!	!	!	!	!LO:TX:t=P:problem=kreska pseudotaktowa	!
.	.	.	.	.	.	.	.	4e\	.
=76-	=76-	=76-	=76-	=76-	=76-	=76-	=76-	=76-	=76-
.	.	.	.	0d\	.	0A\	-runt	2f\	-ſe-
.	.	.	.	.	.	.	.	1g\	-runt
*lig	*	*	*	*	*	*	*	*	*
1D\	cuſ-	.	.	.	.	.	.	.	.
.	.	.	.	.	.	.	.	2f\	.
=77-	=77-	=77-	=77-	=77-	=77-	=77-	=77-	=77-	=77-
!	!	!	!	!	!	!LO:TX:t=P:problem=kreska pseudotaktowa	!	!LO:TX:t=P:problem=kreska pseudotaktowa	!
1E\	.	1G\	per-	0B\	me	1G/	me	0g\	me
*Xlig	*	*	*	*	*	*	*	*	*
1E\	-ſe-	2.G\	-cuſ-	.	.	1r	.	.	.
!	!	!LO:TX:t=P:problem=kreska pseudotaktowa	!	!	!	!	!	!	!
.	.	4A\	.	.	.	.	.	.	.
!	!	!	!	!LO:TX:t=P:problem=kreska pseudotaktowa	!	!	!	!	!
=78-	=78-	=78-	=78-	=78-	=78-	=78-	=78-	=78-	=78-
0D\	-runt	2B\	-ſe-	1r	.	1d\	et	00r	.
.	.	1c\	-runt	.	.	.	.	.	.
*	*	*	*	*	*	*lig	*	*	*
.	.	.	.	1F/	et	1d\	Vul-	.	.
.	.	2B\	.	.	.	.	.	.	.
=79-	=79-	=79-	=79-	=79-	=79-	=79-	=79-	=79-	=79-
!LO:TX:t=P:problem=kreska pseudotaktowa	!	!LO:TX:t=P:problem=kreska pseudotaktowa	!	!	!	!LO:TX:t=P:problem=kreska pseudotaktowa	!	!	!
0C/	me	0c\	me	1G/	Vul-	1e\	.	.	.
*	*	*	*	*	*	*Xlig	*	*	*
!	!	!	!	!LO:TX:t=P:problem=kreska pseudotaktowa	!	!	!	!	!
.	.	.	.	1G/	-ne-	1.e\	-ne-	.	.
!	!	!LO:LB:g=original	!	!	!	!	!	!	!
=80-	=80-	=80-	=80-	=80-	=80-	=80-	=80-	=80-	=80-
1C/	et	1.G\	et	0E/	-ra-	.	.	00r	.
!	!	!	!	!	!	!LO:TX:t=P:problem=kreska pseudotaktowa	!	!	!
.	.	.	.	.	.	2d\	.	.	.
1.C/	uul-	.	.	.	.	2c\	.	.	.
.	.	2F\	Vul-	.	.	2B\	.	.	.
=81-	=81-	=81-	=81-	=81-	=81-	=81-	=81-	=81-	=81-
.	.	2E\	.	2.C/	-ve-	2A/	.	.	.
!	!	!LO:TX:t=P:problem=kreska pseudotaktowa	!	!	!	!LO:TX:t=P:problem=kreska pseudotaktowa	!	!	!
2BB/	.	2D\	-ne-	.	.	2G/	.	.	.
!	!	!	!	!LO:TX:t=P:problem=kreska pseudotaktowa	!	!	!	!	!
.	.	.	.	4D/	.	.	.	.	.
!LO:LB:g=original	!	!	!	!	!	!	!	!	!
2AA/	-ne-	2C/	-ra-	4E/	.	2c\	-ra-	.	.
.	.	.	.	4F/	.	.	.	.	.
2GG/	.	2BBny/	-ve-	1G/	.	2d\	.	.	.
=82-	=82-	=82-	=82-	=82-	=82-	=82-	=82-	=82-	=82-
1C/	-ra-	1AA/	-runt	.	.	2.e\	-ue-	0r	.
.	.	.	.	2F/	-runt	.	.	.	.
.	.	.	.	.	.	8d\L	.	.	.
!	!	!	!	!	!	!LO:TX:t=P:problem=kreska pseudotaktowa	!	!	!
.	.	.	.	.	.	8c\J	.	.	.
!	!	!LO:TX:t=P:problem=kreska pseudotaktowa	!	!LO:TX:t=P:problem=kreska pseudotaktowa	!	!	!	!	!
2D/	-ue-	1GG/	me	0G/	me	2.B\	.	.	.
1E\	.	.	.	.	.	.	.	.	.
.	.	.	.	.	.	4A\	.	.	.
=83-	=83-	=83-	=83-	=83-	=83-	=83-	=83-	=83-	=83-
.	.	0r	.	.	.	4B\	.	2r	.
.	.	.	.	.	.	4G/	.	.	.
!LO:TX:t=P:problem=kreska pseudotaktowa	!	!	!	!	!	!	!	!LO:TX:t=P:problem=kreska pseudotaktowa	!
2E\	-runt	.	.	.	.	1c\	-runt	2c/	tu-
1D\	.	.	.	2r	.	.	.	1d\	-le-
.	.	.	.	2F/	tu-	2B\	.	.	.
=84-	=84-	=84-	=84-	=84-	=84-	=84-	=84-	=84-	=84-
!LO:TX:t=P:problem=kreska pseudotaktowa	!	!	!	!	!	!	!	!LO:TX:t=P:problem=kreska pseudotaktowa	!
0C/	me	0E\	tu-	0G/	-le-	0.c\	Me	0e\	-runt
=85-	=85-	=85-	=85-	=85-	=85-	=85-	=85-	=85-	=85-
*	*	*lig	*	*	*	*	*	*	*
!	!	!	!	!LO:TX:t=P:problem=kreska pseudotaktowa	!	!	!	!	!
1r	.	1F\	-le-	1A\	-runt	.	.	1r	.
!	!	!LO:TX:t=P:problem=kreska pseudotaktowa	!	!	!	!LO:LB:g=original	!	!	!
1FF/	tu-	1A\	.	1c\	pal-	00r	.	1f\	pal-
*	*	*Xlig	*	*	*	*	*	*	*
=86-	=86-	=86-	=86-	=86-	=86-	=86-	=86-	=86-	=86-
0GG/	-le-	0G\	-runt	0B\	-li-	.	.	1e\	-li-
!	!	!	!	!	!	!	!	!LO:TX:t=P:problem=kreska pseudotaktowa	!
.	.	.	.	.	.	.	.	1d\	-u(m)
=87-	=87-	=87-	=87-	=87-	=87-	=87-	=87-	=87-	=87-
!LO:TX:t=P:problem=kreska pseudotaktowa	!	!	!	!LO:TX:t=P:problem=kreska pseudotaktowa	!	!LO:TX:t=P:problem=kreska pseudotaktowa	!	!	!
0AA/	-runt	0E\	pal-	1A\	-u(m)	.	.	2.c/	me-
.	.	.	.	.	.	.	.	4B/	.
!	!	!	!	!	!	!	!	!LO:TX:t=P:problem=kreska pseudotaktowa	!
.	.	.	.	1c\	me-	1r	.	1A/	.
=88-	=88-	=88-	=88-	=88-	=88-	=88-	=88-	=88-	=88-
1r	.	1D\	-li-	1d\	-u(m)	1F/	tu-	2.A/	-um
.	.	.	.	.	.	.	.	4B/	.
1.C/	pal-	1E\	-u(m)	00r	.	0G/	-le-	4c\	.
.	.	.	.	.	.	.	.	4d\	.
.	.	.	.	.	.	.	.	1e\	cu-
=89-	=89-	=89-	=89-	=89-	=89-	=89-	=89-	=89-	=89-
.	.	2C/	.	.	.	.	.	.	.
!	!	!LO:TX:t=P:problem=kreska pseudotaktowa	!	!	!	!	!	!LO:TX:t=P:problem=kreska pseudotaktowa	!
2BB/	-li-	2D/	.	.	.	.	.	2d\	-ſto-
!LO:TX:t=P:problem=kreska pseudotaktowa	!	!	!	!	!	!	!	!	!
*	*	*lig	*	*	*	*	*	*	*
!	!	!	!	!	!	!LO:TX:t=P:problem=kreska pseudotaktowa	!	!	!
0AA/	-u(m)	1E\	me-	.	.	1A\	-runt	2.c/	.
.	.	.	.	.	.	.	.	4B/	.
=90-	=90-	=90-	=90-	=90-	=90-	=90-	=90-	=90-	=90-
.	.	1F\	.	.	.	1.c\	pal-	1A/	-des
*	*	*Xlig	*	*	*	*	*	*	*
!	!	!LO:TX:t=P:problem=kreska pseudotaktowa	!	!	!	!	!	!LO:TX:t=P:problem=kreska pseudotaktowa	!
1C/	me-	1E\	-um	00r	.	.	.	1G/	.
.	.	.	.	.	.	2B\	-li-	.	.
=91-	=91-	=91-	=91-	=91-	=91-	=91-	=91-	=91-	=91-
!	!	!	!	!	!	!LO:TX:t=P:problem=kreska pseudotaktowa	!	!	!
2D/	.	2r	.	.	.	1A\	-u(m)	0r	.
1F\	.	1A\	cu-	.	.	.	.	.	.
.	.	.	.	.	.	0c\	me-	.	.
4E\	.	4G\	-ſto-	.	.	.	.	.	.
4D\	.	4F\	.	.	.	.	.	.	.
=92-	=92-	=92-	=92-	=92-	=92-	=92-	=92-	=92-	=92-
!	!	!LO:TX:t=P:problem=kreska pseudotaktowa	!	!	!	!	!	!	!
1E\	.	1G\	.	.	.	.	.	1r	.
!LO:TX:t=P:problem=kreska pseudotaktowa	!	!	!	!	!	!	!	!	!
!LO:TX:a:t=4	!	!	!	!LO:TX:t=P:problem=kreska pseudotaktowa	!	!	!	!	!
00D\	-um	1GG/	-des	00r	.	00d\	-u(m)	1G/	mu-
=93-	=93-	=93-	=93-	=93-	=93-	=93-	=93-	=93-	=93-
.	.	2r	.	.	.	.	.	2A/	.
.	.	1G\	cu-	.	.	.	.	1B/	-ro-
.	.	4F\	.	.	.	.	.	4A/	.
!	!	!LO:TX:t=P:problem=kreska pseudotaktowa	!	!	!	!	!	!LO:TX:t=P:problem=kreska pseudotaktowa	!
.	.	4E\	.	.	.	.	.	4G/	.
=94-	=94-	=94-	=94-	=94-	=94-	=94-	=94-	=94-	=94-
.	.	1F\	-ſto-	.	.	.	.	1A/	.
!LO:TX:a:t=1	!	!	!	!	!	!	!	!	!
1r	.	1C/	-deſ	1G/	mu-	1.e\	cu-	1c\	.
!	!	!LO:LB:g=original	!	!	!	!	!	!	!
=95-	=95-	=95-	=95-	=95-	=95-	=95-	=95-	=95-	=95-
!	!	!	!	!	!	!	!	!LO:TX:t=P:problem=kreska pseudotaktowa	!
1.E\	cu-	00r	.	1.G/	-ro-	.	.	1B/	-rum
!	!	!	!	!	!	!LO:TX:t=P:problem=kreska pseudotaktowa	!	!	!
.	.	.	.	.	.	2d\	.	.	.
.	.	.	.	.	.	2c\	.	0r	.
!LO:TX:t=P:problem=kreska pseudotaktowa	!	!	!	!LO:TX:t=P:problem=kreska pseudotaktowa	!	!	!	!	!
2D/	.	.	.	2F/	.	2B\	.	.	.
=96-	=96-	=96-	=96-	=96-	=96-	=96-	=96-	=96-	=96-
2C/	-ſto-	.	.	2E/	.	2A/	.	.	.
*custos:AA	*	*	*	*	*	*	*	*	*
!	!	!	!	!	!	!LO:TX:t=P:problem=kreska pseudotaktowa	!	!	!
2BB/	.	.	.	2D/	.	2G/	-ſto-	.	.
!LO:LB:g=original	!	!	!	!	!	!	!	!	!
2AA/	.	.	.	2A/	.	4F/	.	1r	.
.	.	.	.	.	.	4E/	.	.	.
*	*	*	*	*custos:A	*	*	*	*	*
!	!	!	!	!LO:TX:t=P:problem=kreska pseudotaktowa	!	!	!	!	!
2GG/	.	.	.	2B/	.	1G/	.	.	.
!	!	!	!	!LO:LB:g=original	!	!	!	!	!
=97-	=97-	=97-	=97-	=97-	=97-	=97-	=97-	=97-	=97-
!	!	!LO:TX:t=P:problem=kreska pseudotaktowa	!	!	!	!	!	!	!
*	*	*	*	*lig	*	*	*	*	*
1D\	.	1r	.	1A\	-rum	.	.	1.d\	Fi-
.	.	.	.	.	.	2F/	.	.	.
!LO:TX:t=P:problem=kreska pseudotaktowa	!	!	!	!LO:TX:t=P:problem=kreska pseudotaktowa	!	!	!	!	!
1GG/	-des	1.G\	Fi-	1B\	.	1.G/	-des	.	.
!	!	!	!	!	!	!	!	!LO:TX:t=P:problem=kreska pseudotaktowa	!
.	.	.	.	.	.	.	.	2c/	.
*	*	*	*	*Xlig	*	*	*	*	*
=98-	=98-	=98-	=98-	=98-	=98-	=98-	=98-	=98-	=98-
0r	.	.	.	00r	.	.	.	2B/	-li-
!	!	!	!	!	!	!LO:TX:t=P:problem=kreska pseudotaktowa	!	!	!
.	.	2F\	-li-	.	.	2A/	.	2A/	-ae
.	.	2E/	-ae	.	.	1B\	mu-	2e\	.
!	!	!LO:TX:t=P:problem=kreska pseudotaktowa	!	!	!	!	!	!LO:TX:t=P:problem=kreska pseudotaktowa	!
.	.	2D/	Je-	.	.	.	.	2f\	Je-
=99-	=99-	=99-	=99-	=99-	=99-	=99-	=99-	=99-	=99-
1r	.	2C/	-ru-	.	.	2c\	.	2e\	-ru-
.	.	2D/	.	.	.	1A\	-ro-	1d\	.
2r	.	1E\	-ſa-	.	.	.	.	.	.
1G\	mu-	.	.	.	.	2G/	.	2c/	-ſa-
=100-	=100-	=100-	=100-	=100-	=100-	=100-	=100-	=100-	=100-
!	!	!LO:TX:t=P:problem=kreska pseudotaktowa	!	!	!	!LO:TX:t=P:problem=kreska pseudotaktowa	!	!LO:TX:t=P:problem=kreska pseudotaktowa	!
.	.	1D\	-lem	1r	.	1A\	-rum	1d\	-lem
!LO:TX:t=P:problem=kreska pseudotaktowa	!	!	!	!	!	!	!	!	!
2F\	.	.	.	.	.	.	.	.	.
!	!	!	!	!	!	!	!	!LO:LB:g=original	!
2E\	.	0r	.	1.e\	Fi-	0r	.	00r	.
2D/	.	.	.	.	.	.	.	.	.
=101-	=101-	=101-	=101-	=101-	=101-	=101-	=101-	=101-	=101-
2C/	.	.	.	.	.	.	.	.	.
!	!	!	!	!LO:TX:t=P:problem=kreska pseudotaktowa	!	!	!	!	!
2D/	-ro-	.	.	2d\	-li-	.	.	.	.
1E\	-rum	1r	.	2c\	-ae	1.e\	Fi-	.	.
.	.	.	.	2B\	Je-	.	.	.	.
=102-	=102-	=102-	=102-	=102-	=102-	=102-	=102-	=102-	=102-
*	*	*	*ij	*	*	*	*	*	*
!LO:TX:t=P:problem=kreska pseudotaktowa	!	!	!	!	!	!	!	!	!
1AA/	.	1.A\	Fi-	2A\	-ru-	.	.	.	.
!	!	!	!	!	!	!LO:TX:t=P:problem=kreska pseudotaktowa	!	!	!
.	.	.	.	2f\	-ſa-	2d\	.	.	.
!	!	!	!	!LO:TX:t=P:problem=kreska pseudotaktowa	!	!	!	!	!
00r	.	.	.	1e\	-lem	2c\	-li-	00r	.
!	!	!LO:TX:t=P:problem=kreska pseudotaktowa	!	!	!	!	!	!	!
.	.	2G\	-li-	.	.	2B\	-ae	.	.
=103-	=103-	=103-	=103-	=103-	=103-	=103-	=103-	=103-	=103-
.	.	2F\	-ae	00r	.	2.A/	Je-	.	.
.	.	4E\	Je-	.	.	.	.	.	.
.	.	4D\	.	.	.	4B\	.	.	.
!	!	!	!	!	!	!LO:LB:g=original	!	!	!
.	.	2C/	-ru-	.	.	2c\	.	.	.
.	.	2F\	.	.	.	1d\	-ru-	.	.
=104-	=104-	=104-	=104-	=104-	=104-	=104-	=104-	=104-	=104-
.	.	1E\	-sa-	.	.	.	.	.	.
.	.	.	.	.	.	2c\	-ſa-	.	.
!	!	!LO:TX:t=P:problem=kreska pseudotaktowa	!	!	!	!LO:TX:t=P:problem=kreska pseudotaktowa	!	!	!
1.A\	Fi-	0D\	-lem	.	.	1d\	-le(m)	1r	.
*	*	*	*Xij	*	*	*	*	*	*
=105-	=105-	=105-	=105-	=105-	=105-	=105-	=105-	=105-	=105-
.	.	.	.	1r	.	00r	.	1.a\	Fi-
!LO:TX:t=P:problem=kreska pseudotaktowa	!	!	!	!	!	!	!	!	!
2G\	-li-	.	.	.	.	.	.	.	.
2F\	-ae	1r	.	1.d\	Fi-	.	.	.	.
!	!	!	!	!	!	!	!	!LO:TX:t=P:problem=kreska pseudotaktowa	!
2E\	Jer-	.	.	.	.	.	.	2g\	.
=106-	=106-	=106-	=106-	=106-	=106-	=106-	=106-	=106-	=106-
2D/	-uſ-	2.A\	Je-	.	.	.	.	2f\	.
!	!	!	!	!LO:TX:t=P:problem=kreska pseudotaktowa	!	!	!	!	!
2AA/	-a-	.	.	2c\	-li-	.	.	2e\	-li-
.	.	4G\	.	.	.	.	.	.	.
!LO:TX:t=P:problem=kreska pseudotaktowa	!	!	!	!	!	!	!	!	!
0D\	-le(m)	2.F\	-ru-	2B\	-ae	.	.	2.d\	-ae
.	.	.	.	4A/	.	.	.	.	.
!	!	!LO:TX:t=P:problem=kreska pseudotaktowa	!	!	!	!	!	!LO:TX:t=P:problem=kreska pseudotaktowa	!
.	.	4E\	.	4G/	.	.	.	4e\	Je-
=107-	=107-	=107-	=107-	=107-	=107-	=107-	=107-	=107-	=107-
!	!	!	!	!	!	!LO:TX:t=P:problem=kreska pseudotaktowa	!	!	!
.	.	2D/	.	2F/	.	0.d\	nun-	2f\	.
!	!	!	!	!LO:TX:t=P:problem=kreska pseudotaktowa	!	!	!	!	!
.	.	2GG/	.	2B/	Je-	.	.	1g\	-ru-
1r	.	1D\	-ſa-	1A\	-ru-	.	.	.	.
.	.	.	.	.	.	.	.	2f\	-ſa-
=108-	=108-	=108-	=108-	=108-	=108-	=108-	=108-	=108-	=108-
!	!	!LO:TX:t=P:problem=kreska pseudotaktowa	!	!	!	!	!	!LO:TX:t=P:problem=kreska pseudotaktowa	!
1.G\	nun-	0GG/	-lem	1.B\	.	.	.	0g\	-lem
.	.	.	.	.	.	1d\	-ti-	.	.
!LO:TX:t=P:problem=kreska pseudotaktowa	!	!	!	!	!	!	!	!	!
2G\	-ti-	.	.	4A/	.	.	.	.	.
.	.	.	.	4G/	.	.	.	.	.
=109-	=109-	=109-	=109-	=109-	=109-	=109-	=109-	=109-	=109-
1G\	-a-	00r	.	1B\	-ſa-	00d\	-a-	0r	.
!LO:TX:t=P:problem=kreska pseudotaktowa	!	!	!	!LO:TX:t=P:problem=kreska pseudotaktowa	!	!	!	!	!
1F\	-le	.	.	1A\	-le(m)	.	.	.	.
=110-	=110-	=110-	=110-	=110-	=110-	=110-	=110-	=110-	=110-
1G\	di-	.	.	1.B\	.	.	.	1.g\	nun-
1G\	-le-	.	.	.	.	.	.	.	.
.	.	.	.	4c\	.	.	.	2g\	-ti-
.	.	.	.	4d\	.	.	.	.	.
!LO:LB:g=original	!	!	!	!	!	!	!	!	!
=111-	=111-	=111-	=111-	=111-	=111-	=111-	=111-	=111-	=111-
!LO:TX:t=P:problem=kreska pseudotaktowa	!	!LO:TX:t=P:problem=kreska pseudotaktowa	!	!LO:TX:t=P:problem=kreska pseudotaktowa	!	!LO:TX:t=P:problem=kreska pseudotaktowa	!	!LO:TX:t=P:problem=kreska pseudotaktowa	!
1C/	-cto	1r	.	1e\	.	1c\	-le	1g\	-a-
!	!	!	!	!	!	!	!	!LO:TX:t=P:problem=kreska pseudotaktowa	!
0F\	qui-	1.D\	nun-	1.A\	.	1d\	di-	0f\	-te
=112-	=112-	=112-	=112-	=112-	=112-	=112-	=112-	=112-	=112-
.	.	.	.	.	.	0d\	-le-	.	.
!	!	!LO:TX:t=P:problem=kreska pseudotaktowa	!	!	!	!	!	!	!
.	.	2D/	-ti-	2F/	.	.	.	.	.
!LO:TX:t=P:problem=kreska pseudotaktowa	!	!	!	!LO:TX:t=P:problem=kreska pseudotaktowa	!	!	!	!	!
1A\	-a	1D\	-a-	1f\	.	.	.	1f\	de-
!	!	!LO:LB:g=original	!	!	!	!	!	!	!
=113-	=113-	=113-	=113-	=113-	=113-	=113-	=113-	=113-	=113-
*	*	*	*	*	*	*lig	*	*	*
1.c\	a-	0C/	-le	0e\	.	1G/	-cto	1g\	-le-
!	!	!	!	!	!	!LO:TX:t=P:problem=kreska pseudotaktowa	!	!LO:TX:t=P:problem=kreska pseudotaktowa	!
.	.	.	.	.	.	1A\	.	1c\	-cto
2A\	.	.	.	.	.	.	.	.	.
*	*	*	*	*	*	*Xlig	*	*	*
=114-	=114-	=114-	=114-	=114-	=114-	=114-	=114-	=114-	=114-
2B\	-mo-	1D\	di-	1d\	.	2r	.	00r	.
1A\	-re	.	.	.	.	1F/	qui-	.	.
!	!	!	!	!LO:LB:g=original	!	!	!	!	!
!	!	!	!	!LO:TX:t=P:problem=kreska pseudotaktowa	!	!	!	!	!
.	.	0D\	-lec-	1r	.	.	.	.	.
!	!	!	!	!	!	!LO:TX:t=P:problem=kreska pseudotaktowa	!	!	!
1G\	lan-	.	.	.	.	2G/	.	.	.
=115-	=115-	=115-	=115-	=115-	=115-	=115-	=115-	=115-	=115-
.	.	.	.	1.d\	nun-	1A\	-a	.	.
!LO:TX:t=P:problem=kreska pseudotaktowa	!	!	!	!	!	!	!	!	!
2F\	-gue-	.	.	.	.	.	.	.	.
!LO:TX:t=P:problem=kreska pseudotaktowa	!	!LO:TX:t=P:problem=kreska pseudotaktowa	!	!	!	!	!	!	!
0G\	-o	0GG/	-to	.	.	0B\	.	.	.
.	.	.	.	2d\	-ti-	.	.	.	.
=116-	=116-	=116-	=116-	=116-	=116-	=116-	=116-	=116-	=116-
.	.	.	.	1d\	-a-	.	.	00r	.
00r	.	0r	.	2c\	-le	2A/	.	.	.
!	!	!	!	!LO:TX:t=P:problem=kreska pseudotaktowa	!	!LO:TX:t=P:problem=kreska pseudotaktowa	!	!	!
.	.	.	.	2d\	ci-	2B/	.	.	.
=117-	=117-	=117-	=117-	=117-	=117-	=117-	=117-	=117-	=117-
!	!	!	!	!	!	!LO:N:xstem:cue	!	!	!
.	.	.	.	1d\	-le-	4B\	.	.	.
.	.	.	.	.	.	8A\L	.	.	.
.	.	.	.	.	.	8G\J	.	.	.
.	.	.	.	.	.	4A\	.	.	.
.	.	.	.	.	.	4B\	.	.	.
!	!	!LO:TX:a:t=4	!	!	!	!LO:TX:t=P:problem=kreska pseudotaktowa	!	!	!
.	.	00C/	qui-	1.G/	-cto	1c\	.	.	.
=118-	=118-	=118-	=118-	=118-	=118-	=118-	=118-	=118-	=118-
!	!	!	!	!	!	!	!	!LO:TX:t=P:problem=kreska pseudotaktowa	!
.	.	.	.	.	.	0r	.	0c\	qui-
.	.	.	.	1A\	.	.	.	.	.
00r	.	.	.	.	.	.	.	.	.
.	.	.	.	4G/	.	.	.	.	.
!	!	!	!	!LO:TX:t=P:problem=kreska pseudotaktowa	!	!	!	!	!
.	.	.	.	4F/	.	.	.	.	.
=119-	=119-	=119-	=119-	=119-	=119-	=119-	=119-	=119-	=119-
!	!	!	!	!	!	!	!	!LO:TX:t=P:problem=kreska pseudotaktowa	!
.	.	.	.	4E/	.	0G/	a-	1e\	-a
.	.	.	.	4D/	.	.	.	.	.
.	.	.	.	2c\	.	.	.	.	.
!	!	!	!	!LO:TX:t=P:problem=kreska pseudotaktowa	!	!	!	!	!
.	.	1E\	-a	1B\	.	.	.	1.g\	a-
=120-	=120-	=120-	=120-	=120-	=120-	=120-	=120-	=120-	=120-
.	.	2.G\	.	00r	.	2.B\	-mo-	.	.
!	!	!	!	!	!	!	!	!LO:TX:t=P:problem=kreska pseudotaktowa	!
.	.	.	.	.	.	.	.	2e\	.
*	*	*	*	*	*	*custos:d	*	*	*
!	!	!	!	!	!	!LO:TX:t=P:problem=kreska pseudotaktowa	!	!	!
!	!	!LO:TX:t=P:problem=kreska pseudotaktowa	!	!	!	!	!	!	!
!	!	!	!	!	!	!LO:TX:t=P:problem=wykreslone takty	!	!	!
.	.	4F\	.	.	.	4c\	.	.	.
!	!	!	!	!	!	!LO:PB:g=original	!	!	!
0r	.	2D/	.	.	.	2d\	.	2f\	.
.	.	2E\	.	.	.	1c\	-re	1e\	-mo-
=121-	=121-	=121-	=121-	=121-	=121-	=121-	=121-	=121-	=121-
.	.	2F\	a-	.	.	.	.	.	.
.	.	2G\	-mo-	.	.	4B\	lan-	1d\	.
!	!	!	!	!	!	!LO:TX:t=P:problem=kreska pseudotaktowa	!	!	!
.	.	.	.	.	.	4A\	.	.	.
!LO:TX:t=P:problem=kreska pseudotaktowa	!	!	!	!	!	!	!	!	!
1r	.	1E\	.	.	.	2.G/	.	.	.
!	!	!	!	!	!	!	!	!LO:TX:t=P:problem=kreska pseudotaktowa	!
.	.	.	.	.	.	.	.	2c/	.
.	.	.	.	.	.	4A\	.	.	.
=122-	=122-	=122-	=122-	=122-	=122-	=122-	=122-	=122-	=122-
!	!	!LO:TX:t=P:problem=kreska pseudotaktowa	!	!	!	!	!	!	!
1BB-X/	qui-	1D\	-re	0F/	qui-	1B-X\	-gue-	0d\	-re
!	!	!	!	!	!	!LO:TX:t=P:problem=kreska pseudotaktowa	!	!	!
1D\	-a	0r	.	.	.	1A\	-o	.	.
!	!	!	!	!	!	!	!	!LO:PB:g=original	!
=123-	=123-	=123-	=123-	=123-	=123-	=123-	=123-	=123-	=123-
!	!	!	!	!LO:TX:t=P:problem=kreska pseudotaktowa	!	!	!	!	!
1.F\	a-	.	.	1A\	-a	0r	.	00r	.
.	.	1r	.	1.c\	a-	.	.	.	.
4E\	.	.	.	.	.	.	.	.	.
!LO:TX:t=P:problem=kreska pseudotaktowa	!	!	!	!	!	!	!	!	!
4D\	.	.	.	.	.	.	.	.	.
=124-	=124-	=124-	=124-	=124-	=124-	=124-	=124-	=124-	=124-
2E\	-mo-	2r	.	.	.	2r	.	.	.
!	!	!	!	!LO:TX:t=P:problem=kreska pseudotaktowa	!	!	!	!	!
1D\	-re	1F\	a-	2A/	.	1F/	qui-	.	.
.	.	.	.	2B\	-mo-	.	.	.	.
!	!	!LO:TX:t=P:problem=kreska pseudotaktowa	!	!	!	!LO:TX:t=P:problem=kreska pseudotaktowa	!	!	!
2.C/	lan-	2E\	-mo-	1A\	.	2A/	-a	.	.
=125-	=125-	=125-	=125-	=125-	=125-	=125-	=125-	=125-	=125-
!	!	!LO:N:xstem:cue	!	!	!	!	!	!LO:TX:t=P:problem=kreska pseudotaktowa	!
.	.	4E\	.	.	.	1.c\	a-	1r	.
4BBny/	.	4D\	.	.	.	.	.	.	.
4AA/	.	2E\	-re	1G/	-re	.	.	.	.
4GG/	.	.	.	.	.	.	.	.	.
!	!	!LO:TX:t=P:problem=kreska pseudotaktowa	!	!	!	!	!	!	!
1AA/	-gue-	1C/	.	.	.	.	.	1c\	qui-
!	!	!	!	!LO:TX:t=P:problem=kreska pseudotaktowa	!	!	!	!	!
.	.	.	.	2F/	lan-	2A\	-mo-	.	.
=126-	=126-	=126-	=126-	=126-	=126-	=126-	=126-	=126-	=126-
!LO:TX:t=P:problem=kreska pseudotaktowa	!	!	!	!	!	!	!	!	!
1GG/	-o	2r	.	2G/	.	1Bny\	-re	2e\	-a
!	!	!LO:TX:t=P:problem=kreska pseudotaktowa	!	!	!	!	!	!LO:TX:t=P:problem=kreska pseudotaktowa	!
.	.	2BB-X/	qui-	4D/	.	.	.	2g\	.
!	!	!	!	!LO:TX:t=P:problem=kreska pseudotaktowa	!	!	!	!	!
.	.	.	.	4E/	.	.	.	.	.
!	!	!	!	!	!	!LO:TX:t=P:problem=kreska pseudotaktowa	!	!	!
0r	.	2D/	-a	4F/	.	0A\	lan-	2.f\	a-
.	.	.	.	4G/	.	.	.	.	.
.	.	1F\	a-	2A/	-gue-	.	.	.	.
.	.	.	.	.	.	.	.	8e\L	-mo-
.	.	.	.	.	.	.	.	8d\J	.
=127-	=127-	=127-	=127-	=127-	=127-	=127-	=127-	=127-	=127-
!	!	!	!	!LO:TX:t=P:problem=kreska pseudotaktowa	!	!	!	!	!
.	.	.	.	1D/	-o	.	.	2c/	.
!	!	!LO:TX:t=P:problem=kreska pseudotaktowa	!	!	!	!	!	!	!
.	.	2D\	.	.	.	.	.	1d\	.
1r	.	1E\	-mo-	00r	.	1.G/	.	.	.
!	!	!	!	!	!	!	!	!LO:TX:t=P:problem=kreska pseudotaktowa	!
.	.	.	.	.	.	.	.	2c/	.
=128-	=128-	=128-	=128-	=128-	=128-	=128-	=128-	=128-	=128-
!	!	!LO:TX:t=P:problem=wykreslone takty	!	!	!	!	!	!	!
2r	.	0D\	-re	.	.	.	.	2d/	.
*	*ij	*	*	*	*	*	*	*	*
!LO:TX:t=P:problem=kreska pseudotaktowa	!	!	!	!	!	!	!	!LO:SIC:v:s=2A/	!
2F\	qui-	.	.	.	.	4F/	.	2B/	.
.	.	.	.	.	.	4E/	.	.	.
1A\	-a	.	.	.	.	1F/	-gue-	1d\	-re-
!LO:LB:g=original	!	!LO:LB:g=original	!	!	!	!	!	!	!
=129-	=129-	=129-	=129-	=129-	=129-	=129-	=129-	=129-	=129-
0ryy	.	0C/	.	.	.	0ryy	.	0ryy	.
*	*	*	*	*custos:A	*	*	*	*	*
!	!	!	!	!LO:TX:t=P:problem=kreska pseudotaktowa	!	!	!	!	!
.	.	.	.	1r	.	.	.	.	.
=130-	=130-	=130-	=130-	=130-	=130-	=130-	=130-	=130-	=130-
!	!	!	!	!LO:TX:t=P:problem=brak pauzy 0	!	!LO:TX:t=P:problem=kreska pseudotaktowa	!	!	!
1.c\	a-	0C/	lan-	0ryy	.	1G/	-o	0e\	-lan-
.	.	.	.	.	.	2r	.	.	.
!LO:TX:t=P:problem=kreska pseudotaktowa	!	!	!	!	!	!	!	!	!
2A\	.	.	.	.	.	2E/	lan-	.	.
=131-	=131-	=131-	=131-	=131-	=131-	=131-	=131-	=131-	=131-
2B\	-mo-	1D\	-gue-	2r	.	4F/	.	0d\	.
.	.	.	.	.	.	4D/	.	.	.
!	!	!	!	!	!	!LO:TX:t=P:problem=kreska pseudotaktowa	!	!	!
1A\	-re	.	.	1F/	lan-	2.d\	.	.	.
!	!	!LO:TX:t=P:problem=kreska pseudotaktowa	!	!	!	!	!	!	!
.	.	0D\	.	.	.	.	.	.	.
.	.	.	.	.	.	4c\	-gu-	.	.
!	!	!	!	!LO:TX:t=P:problem=kreska pseudotaktowa	!	!	!	!	!
1G\	lan-	.	.	2G/	.	2B\	-e-	.	.
=132-	=132-	=132-	=132-	=132-	=132-	=132-	=132-	=132-	=132-
!	!	!	!	!	!	!LO:TX:t=P:problem=kreska pseudotaktowa	!	!LO:TX:t=P:problem=kreska pseudotaktowa	!
.	.	.	.	1A\	-gue-	1A\	-o	1d\	-que-
!LO:TX:t=P:problem=kreska pseudotaktowa	!	!	!	!	!	!	!	!	!
2F\	-gue-	.	.	.	.	.	.	.	.
!	!	!	!	!	!	!LO:LB:g=original	!	!	!
!	!	!	!	!	!	!LO:TX:t=P:problem=kreska pseudotaktowa	!	!	!
0G\	-o	0GG/	-o	0B\	-o	0G/	.	0d\	-o
*	*Xij	*	*	*	*	*	*	*	*
=133-	=133-	=133-	=133-	=133-	=133-	=133-	=133-	=133-	=133-
.	.	.	.	.	.	.	.	.	.
1G\	al-	1GG/	al-	1G/	al-	1B\	al-	1d\	al-
=134-	=134-	=134-	=134-	=134-	=134-	=134-	=134-	=134-	=134-
1E\	-le-	1C/	-le-	1G/	-le-	1c\	-le-	1e\	-le-
!	!	!	!	!LO:TX:t=P:problem=kreska pseudotaktowa	!	!	!	!	!
1E\	-lu-	1C/	-lu-	1G/	-lu-	1c\	-lu-	1e\	-lu-
=135-	=135-	=135-	=135-	=135-	=135-	=135-	=135-	=135-	=135-
!LO:TX:t=P:problem=kreska pseudotaktowa	!	!	!	!	!	!	!	!	!
!LO:TX:a:t=4	!	!	!	!	!	!	!	!LO:TX:t=P:problem=kreska pseudotaktowa	!
00D\	-ia	0F\	-ja	1.A\	-ia	2.d\	-ia	0f\	-ia
!	!	!	!	!	!	!LO:TX:t=P:problem=kreska pseudotaktowa	!	!	!
.	.	.	.	.	.	4e\	.	.	.
.	.	.	.	.	.	4f\	.	.	.
.	.	.	.	.	.	4g\	.	.	.
*	*	*	*	*	*ij	*	*	*	*
.	.	.	.	1d\	al-	2.a\	.	.	.
=136-	=136-	=136-	=136-	=136-	=136-	=136-	=136-	=136-	=136-
.	.	1F\	.	.	.	.	.	1r	.
.	.	.	.	.	.	4g\	.	.	.
.	.	.	.	4c\	.	1g\	a-	.	.
!	!	!	!	!LO:TX:t=P:problem=kreska pseudotaktowa	!	!	!	!	!
.	.	.	.	4B\	.	.	.	.	.
!	!	!LO:TX:t=P:problem=kreska pseudotaktowa	!	!	!	!	!	!	!
.	.	1D\	al-	1A\	-le-	.	.	1d\	al-
!	!	!	!	!	!	!LO:TX:t=P:problem=kreska pseudotaktowa	!	!	!
.	.	.	.	.	.	2f\	-le-	.	.
=137-	=137-	=137-	=137-	=137-	=137-	=137-	=137-	=137-	=137-
*	*ij	*	*	*	*	*	*	*	*
0C/	al-	1.G\	-le-	1c\	-lu-	1g\	-lu-	1e\	-le-
!	!	!	!	!	!	!	!	!LO:TX:t=P:problem=kreska pseudotaktowa	!
.	.	.	.	4c\	.	1e\	.	1e\	-lu-
.	.	.	.	4B\	.	.	.	.	.
!	!	!LO:TX:t=P:problem=kreska pseudotaktowa	!	!	!	!	!	!	!
.	.	2A\	.	4A\	.	.	.	.	.
!	!	!	!	!LO:TX:t=P:problem=kreska pseudotaktowa	!	!	!	!	!
.	.	.	.	4G\	.	.	.	.	.
=138-	=138-	=138-	=138-	=138-	=138-	=138-	=138-	=138-	=138-
!	!	!LO:N:xstem:cue	!	!	!	!	!	!	!
1D\	.	4A\	.	2.F/	-ia	[0d\l;;	-ia	2f\	-ia
.	.	4G\	.	.	.	.	.	.	.
*	*	*	*	*	*	*	*	*	*ij
.	.	4F\	.	.	.	.	.	4d\	al-
!	!	!LO:TX:t=P:problem=kreska pseudotaktowa	!	!	!	!	!	!	!
.	.	4E\	.	4G/	.	.	.	4e\	.
1D\	-le-	2D\	.	4A\	.	.	.	4f\	.
.	.	.	.	4D/	.	.	.	4g\	.
!	!	!	!	!	!	!	!	!LO:TX:t=P:problem=kreska pseudotaktowa	!
.	.	1F\	.	1d\	al-	.	.	2a\	.
=139-	=139-	=139-	=139-	=139-	=139-	=139-	=139-	=139-	=139-
!	!	!	!	!	!	!	!	!LO:N:xstem:cue	!
0D\	-lu-	.	.	.	.	0d\_	.	4a\	.
.	.	.	.	.	.	.	.	4g\	-le-
.	.	2G\	.	4c\	-le-	.	.	1g\	-lu-
!	!	!	!	!LO:TX:t=P:problem=kreska pseudotaktowa	!	!	!	!	!
.	.	.	.	4B\	.	.	.	.	.
.	.	1A\	-lu-	1A\	-lu-	.	.	.	.
.	.	.	.	.	.	.	.	2f\	.
=140-	=140-	=140-	=140-	=140-	=140-	=140-	=140-	=140-	=140-
!	!	!	!	!	!	!LO:TX:b:i:t=Poſt communio \nDedicationis Ec\ncleſiae.	!	!	!
0GG/;;	-ia	0G\;;	-ja	0B\;;	-ia	0d\]	.	0g\;;	-ia
*	*Xij	*	*	*	*	*	*	*	*Xij
==	==	==	==	==	==	==	==	==	==
*-	*-	*-	*-	*-	*-	*-	*-	*-	*-
!!!system-decoration: [(s1,s2,s3,s4,s5)]
!!!RDF**kern: l = terminal long
!!!RDF**kern: > = above
!!!RDF**kern: < = below
!!!EED: Andrzej Borzym
!!!EEV: 2021-08-04
!!!ENC: Mateusz Solarz
!!!END: 2021-07-13
